icons/1_Primary/Cloudamo.svg

<svg width="1024" height="1024" fill="none" xmlns="http://www.w3.org/2000/svg"><g clip-path="url(#a)"><path d="M512 1024c282.77 0 512-229.23 512-512S794.77 0 512 0 0 229.23 0 512s229.23 512 512 512Z" fill="#9ABEFF"/><path d="M511.39 445.88c41.33 35.9 92.2 61.25 146.84 68.19.2 66.12-12.09 135.89-52.65 189.84a172.477 172.477 0 0 1-89.69 61.29c-9 1.83-17.48-3.53-25.76-6.25-41.46-16.18-74.23-50-93.3-89.73-23.16-48.15-32-102.38-30.83-155.52 54-6.61 105.31-31.28 145.39-67.82ZM571.75 548c-28.56 27.26-55.86 55.82-84 83.48-12.53-12-23.85-25.47-37.36-36.39-12-7.22-28.48 8.4-19.23 20 14.56 16.31 30.54 31.32 46 46.73 5.44 6.73 16.14 6.37 21.5-.32 31.15-31.11 62.75-61.9 93.38-93.58 11.19-11.99-8.49-31.26-20.29-19.92Zm195.8-32.65c-2.64-44.3-38.62-84.09-82.79-90.13-8.68-.36-17.89-5.48-17-15.5-1.7-60.81-42.59-117.68-99-139.95-41-16.92-89.12-14.68-128.59 5.48-41.87 20.91-73.17 61.51-82.84 107.35-.69 8.88-9.37 12.13-16.79 13.79-40.69 10.3-73.38 45.51-81.9 86.44-7.91 34.93 2.31 73.26 26 100 16.83 19.92 40.69 32.53 65.88 38.33-7.83-34.72-12.53-70.3-11.8-106-.08-14.08 11.64-26.89 25.6-28.27 48.39-6.53 94-28.92 130.13-61.62 8.64-9.25 24.62-10 33.71-1C564 456.75 608.91 479.71 657 486.48c14.85.73 27.91 13.22 28.23 28.31a419.695 419.695 0 0 1-12.53 107.33c54.09-1.41 100.37-52.6 94.85-106.8v.03Z" fill="#fff"/></g><defs><clipPath id="a"><path fill="#fff" d="M0 0h1024v1024H0z"/></clipPath></defs></svg>

<svg width="1024" height="1024" viewBox="0 0 1024 1024" fill="none" xmlns="http://www.w3.org/2000/svg">
<g clip-path="url(#clip0_2_1809)">
<path d="M512 1024C794.77 1024 1024 794.77 1024 512C1024 229.23 794.77 0 512 0C229.23 0 0 229.23 0 512C0 794.77 229.23 1024 512 1024Z" fill="#9ABEFF"/>
<path d="M511.39 445.88C552.72 481.78 603.59 507.13 658.23 514.07C658.43 580.19 646.14 649.96 605.58 703.91C583.066 733.467 551.608 754.964 515.89 765.2C506.89 767.03 498.41 761.67 490.13 758.95C448.67 742.77 415.9 708.95 396.83 669.22C373.67 621.07 364.83 566.84 366 513.7C420 507.09 471.31 482.42 511.39 445.88ZM571.75 548C543.19 575.26 515.89 603.82 487.75 631.48C475.22 619.48 463.9 606.01 450.39 595.09C438.39 587.87 421.91 603.49 431.16 615.09C445.72 631.4 461.7 646.41 477.16 661.82C482.6 668.55 493.3 668.19 498.66 661.5C529.81 630.39 561.41 599.6 592.04 567.92C603.23 555.93 583.55 536.66 571.75 548ZM767.55 515.35C764.91 471.05 728.93 431.26 684.76 425.22C676.08 424.86 666.87 419.74 667.76 409.72C666.06 348.91 625.17 292.04 568.76 269.77C527.76 252.85 479.64 255.09 440.17 275.25C398.3 296.16 367 336.76 357.33 382.6C356.64 391.48 347.96 394.73 340.54 396.39C299.85 406.69 267.16 441.9 258.64 482.83C250.73 517.76 260.95 556.09 284.64 582.83C301.47 602.75 325.33 615.36 350.52 621.16C342.69 586.44 337.99 550.86 338.72 515.16C338.64 501.08 350.36 488.27 364.32 486.89C412.71 480.36 458.32 457.97 494.45 425.27C503.09 416.02 519.07 415.27 528.16 424.27C564 456.75 608.91 479.71 657 486.48C671.85 487.21 684.91 499.7 685.23 514.79C685.696 550.957 681.484 587.032 672.7 622.12C726.79 620.71 773.07 569.52 767.55 515.32V515.35Z" fill="white"/>
</g>
<defs>
<clipPath id="clip0_2_1809">
<rect width="1024" height="1024" fill="white"/>
</clipPath>
</defs>
</svg>
